src/xmb/monochrome/menu_playlist.svg

<?xml version="1.0" encoding="UTF-8" standalone="no"?>
<!-- Generator: Adobe Illustrator 16.0.0, SVG Export Plug-In . SVG Version: 6.00 Build 0)  -->

<svg
   xmlns:dc="http://purl.org/dc/elements/1.1/"
   xmlns:cc="http://creativecommons.org/ns#"
   xmlns:rdf="http://www.w3.org/1999/02/22-rdf-syntax-ns#"
   xmlns:svg="http://www.w3.org/2000/svg"
   xmlns="http://www.w3.org/2000/svg"
   xmlns:sodipodi="http://sodipodi.sourceforge.net/DTD/sodipodi-0.dtd"
   xmlns:inkscape="http://www.inkscape.org/namespaces/inkscape"
   version="1.1"
   id="Calque_1"
   x="0px"
   y="0px"
   width="64px"
   height="64px"
   viewBox="0 0 64 64"
   enable-background="new 0 0 64 64"
   xml:space="preserve"
   sodipodi:docname="menu_playlist.svg"
   inkscape:version="0.92.3 (2405546, 2018-03-11)"
   inkscape:export-filename="/media/alfrix/DATOS/xmb/menu_playlist.png"
   inkscape:export-xdpi="384"
   inkscape:export-ydpi="384"><metadata
     id="metadata8"><rdf:RDF><cc:Work
         rdf:about=""><dc:format>image/svg+xml</dc:format><dc:type
           rdf:resource="http://purl.org/dc/dcmitype/StillImage" /></cc:Work></rdf:RDF></metadata><defs
     id="defs6" /><sodipodi:namedview
     pagecolor="#808080"
     bordercolor="#666666"
     borderopacity="1"
     objecttolerance="10"
     gridtolerance="10"
     guidetolerance="10"
     inkscape:pageopacity="0"
     inkscape:pageshadow="2"
     inkscape:window-width="1024"
     inkscape:window-height="705"
     id="namedview4"
     showgrid="true"
     inkscape:zoom="10.429825"
     inkscape:cx="27.845534"
     inkscape:cy="30.462317"
     inkscape:window-x="-8"
     inkscape:window-y="-8"
     inkscape:window-maximized="1"
     inkscape:current-layer="Calque_1"><inkscape:grid
       type="xygrid"
       id="grid3699" /></sodipodi:namedview><path
     style="fill:#ffffff"
     d="M 20 14 C 18.895 14 18 14.895 18 16 L 18 48 C 18 49.105 18.895 50 20 50 L 44 50 C 45.105 50 46 49.105 46 48 L 46 24 L 36 14 L 20 14 z M 34 16 L 44 26 L 40.003906 26 L 36 26 C 34.895 26 34 25.105 34 24 L 34 20 L 34 16 z M 28.292969 31.320312 A 1.341775 1.341775 0 0 1 28.941406 31.460938 L 36.941406 35.460938 A 1.341775 1.341775 0 0 1 36.941406 37.859375 L 28.941406 41.859375 A 1.341775 1.341775 0 0 1 27 40.660156 L 27 32.660156 A 1.341775 1.341775 0 0 1 28.292969 31.320312 z "
     id="File_1_" /></svg>

<svg xmlns="http://www.w3.org/2000/svg" xml:space="preserve" width="64" height="64"><path d="M20 14a2 2 0 0 0-2 2v32a2 2 0 0 0 2 2h24a2 2 0 0 0 2-2V24L36 14zm14 2 10 10h-8a2 2 0 0 1-2-2zm-5.707 15.32a1.34 1.34 0 0 1 .648.14l8 4a1.342 1.342 0 0 1 0 2.4l-8 4A1.342 1.342 0 0 1 27 40.66v-8a1.34 1.34 0 0 1 1.293-1.34" style="fill:#fff"/></svg>
